!!!!SEGMENT: 037-1-BH-001.krn
!!!COM: Chopin, Fryderyk
!!!OTL: Nocturne 1.
!!!OPS: Op. 37
!!!PTL: Deux Nocturnes Pour Le Piano
!!!PPR: Breitkopf & Härtel
!!!PPP: Leipzig
!!!AGN: Nocturne
!!!NIFC-rismID: 300605111
!!!NIFC-shelfmark: PL-Wbfc 932/n
!!!OMD: Andante sostenuto.
!!!system-decoration: {(s1,s2)}
**kern	**kern	**dynam
*part1	*part1	*part1
*staff2	*staff1	*
*clefF4	*clefG2	*
*k[b-e-]	*k[b-e-]	*
*g:	*g:	*
*M4/4	*M4/4	*
*met(c)	*met(c)	*
4r	(>[>4dd	p >
=1	=1	=1
*ped	*	*
!LO:TX:a:t=P: W niektórych taktach palcowanie i akcenty dopisane ołówkiem:problem	!	!
!LO:TX:b:t=P:znaki pedalizacji od taktu 1 do taktu 4 oznaczone ołówkiem:problem	!	!
(>4GG	4dd]	.
4d 4D	8ccL	]
.	8b-J	.
.	8qa/L	.
.	8qb-/	.
.	8qcc/J	.
4e- 4c 4F#X	8b-L/	.
*Xped	*	*
.	8aJ)	.
4d 4D	4r	.
=2	=2	=2
*ped	*	*
4e- 4B- 4G	8r	.
.	(<8b-/	.
*Xped	*	*
!	!LO:TX:a:t=P:note-head-side tuplet number:problem	!
4d 4D	12b-L	.
.	12a	.
.	12gJ	.
*ped	*	*
4e- 4c 4A	2f#X)	.
*Xped	*	*
4d 4D	.	.
=3	=3	=3
*ped	*	*
4GG	(>4g	<
4d 4B- 4G	8aL	.
.	8b-J	.
*ped	*	*
4CC	4cc	.
4g 4e- 4c 4G)	8ddL	.
.	8ee-J)	.
!LO:TX:b:t=P:znak graficzny decrescenda pod lewą ręką od 4g do 4c:problem	!	!
.	.	[
=4	=4	=4
*	*	*^
*ped	*	*	*
(>4FF	[<2a	.	.
!	!	!	!LO:HP:b=2
4g 4e-	.	.	>
4f 4d	(>8.aL]	.	.
*Xped	*	*	*
.	16ggJk	>	.
4e- 4c)	12ggL	.	]
.	12ff	.	.
.	12ee-J	]	.
*	*	*v	*v
!!LO:LB:g=original
=5	=5	=5
*	*^	*
*ped	*	*	*
4BB- (<4BBB-	(>4dd)	2ryy	f
.	(>8qd/	.	.
.	8qd/L	.	.
.	8qf/	.	.
.	8qb-/J	.	.
*	*Xtuplet	*	*
4F	12ddL\	.	.
.	12cc	.	.
.	.	.	.
*Xped	*	*	*
.	12b-J)	.	.
*	*tuplet	*	*
.	.	[<8qc/L	.
.	.	[<8qd/	.
.	.	[<8qf#X/J	.
*ped	*	*	*
4DD)	8b-L	4f#] 4d] 4c]	.
.	8aJ)	.	.
*Xped	*	*	*
[>4D	4r	4ryy	.
.	.	.	.
*	*v	*v	*
=6	=6	=6
.	(<8qB-/L	.
.	8qd/	.
.	8qg/J	.
*ped	*	*
(>4D] 4GG/	8b-L)/	.
!LO:TX:a:t=P: pojedyncze trójki pod triolami 12b 12a 12g 6f#:problem	!	!
.	16r	.
.	16b-Jk	.
.	8qb-L/	.
.	8qccJ/	.
4d 4D	12b-L	.
.	12a^>	.
*Xped	*	*
.	12g^>J	.
4e- 4c 4A	4f#X^>	.
4d 4D	4r	.
=7	=7	=7
*^	*^	*
2ryy	4B- 4E-)	(>4g 4e-	4ryy	.
.	4G 4BB-	8.aL	4d	.
.	.	16b-Jk	.	.
2A	4E- 4AA/	4cc 4g	2c	.
.	[<4D/	4dd 4f#X	.	.
*v	*v	*	*	*
=8	=8	=8	=8
*ped	*	*	*
4D] 4GG/	4.g)	4rA	.
4d 4G	.	4B-	.
*Xped	*	*	*
.	(>8g	.	<
.	16qg/LL	.	.
.	16qa/JJ	.	.
*ped	*	*	*
4FF	2att	2ryy	.
4f 4c 4F	.	.	.
*Xped	*	*	*
.	.	.	[
.	16qg/LL	.	.
.	16qa/JJ	.	.
*	*v	*v	*
!!LO:LB:g=original
=9	=9	=9
(>4d 4B-	4b-	.
!LO:N:n=2:vis=2	!	!
4f\ 4F	4bn)	.
4e-\ 4A	8r	.
.	(>4cc^<	.
4f [>4F	.	.
.	8cc#X	.
=10	=10	=10
4d\ 4B- 4F]	4dd	.
.	8qdd/L	.
.	8qee-/	.
.	8qdd/	.
.	8qcc#X/	.
.	8qdd/J	.
.	8qdd/	.
!LO:N:n=2:vis=2	!	!
4f\ 4F	8.ggL	.
.	16ffJk	.
4e-\ 4A	8ff	.
.	4ccn	.
(>4f\ 4F	.	.
.	8cc#X	.
*clefG2	*	*
=11	=11	=11
*^	*	*
!	!	!LO:TX:b:Bi:t=cres _:problem:dynamics with extention lines	!
!	!	!	!LO:HP:b:Bi:t=cres:ext=ud
4f)	2d 2B-	4dd	<
2g	.	4ee-)	.
.	2c#X [2A	4r	.
4g	.	(>4een	.
=12	=12	=12	=12
4f	4d 4A]	4ff	.
.	.	8qff/L	.
.	.	8qgg/	.
.	.	8qff/	.
.	.	8qeen/	.
.	.	8qff/J	.
.	.	8qff/	.
4a	2A	8.bb-L	.
.	.	16aaJk	.
4g 4c#X	.	8aa	.
.	.	4dd#X	.
4a 4A)	4ryy	.	.
.	.	8een)	[
*v	*v	*	*
*clefF4	*	*
!!LO:LB:g=original
=13	=13	=13
*ped	*	*
4D	(>4ff	>
4f 4d 4A	8.ggL	.
*Xped	*	*
.	16ffJk	.
*ped	*	*
4E-	4ee-	.
4g 4e- 4B- 4G	8.b-L	.
*Xped	*	*
.	16ccJk	.
=14	=14	=14
*ped	*	*
4BB-	4dd	.
.	8qee-/	.
.	8qdd/L	.
.	8qff/J	.
*Xped	*	*
4d 4B- 4F	8ee-L	.
.	16r	.
.	16ddJk	.
*ped	*	*
4C	4cc)	.
4e- 4G 4E-	(>8.gL	.
*Xped	*	*
.	16aJk)	.
=15	=15	=15
*ped	*	*
4GG	(4b-/	.
4d 4B- 4G	8.aL	.
*Xped	*	*
.	16b-Jk	.
*ped	*	*
4EE-	4cc	.
!	!LO:TX:t=P:dopisane ołówkiem "3" nad przednutkami:problem	!
.	4qqcc/	.
.	4qqdd/	.
.	4qqcc/	.
4g 4c 4G	16bnLL	.
.	16cc	.
*Xped	*	*
.	16dd	.
.	4qqff/	.
.	16ee-JJ	.
=16	=16	=16
*	*^	*
*ped	*	*	*
!	!LO:TX:a:t=P:diminuendolike accent:problem	!	!
4DD	4dd^<)/	4rc	.
*clefG2	*	*	*
(<4f#X 4A	(>4.dd/	2.d	<
4g 4B-	.	.	.
.	8dd/	.	.
8g#XL 8Bn	12ddL/	.	.
.	12dd	.	.
8aJ 8c)	.	.	.
*Xped	*	*	*
.	12ddJ	.	[[
*	*v	*v	*
*clefF4	*	*
!!LO:LB:g=original
=17	=17	=17
*ped	*	*
(>4GGG	4dd	f
4d 4D	8.ccL	.
.	16b-Jk	.
.	8qa/L	.
.	8qb-/	.
.	8qcc/J	.
*Xped	*	*
4e- 4c 4F#X	8b-L/	.
.	8aJ)	.
4d 4D)	4r	.
=18	=18	=18
!LO:TX:a:t=P:pedalizacja dopisana ołówkiem:problem	!	!
*ped	*	*
(>4e- 4B- 4G	(>8r	.
.	8b-	.
.	8qb-/LL	.
.	8qcc/JJ	.
*Xped	*	*
*	*Xtuplet	*
4d 4D	12b-L	.
.	12a	.
.	12gJ	.
*	*tuplet	*
*ped	*	*
4e- 4c 4A	4f#X)	.
*Xped	*	*
4d 4D)	4r	.
=19	=19	=19
*ped	*	*
4GG	(>4g	.
4d 4B- 4G	8aL	.
*Xped	*	*
.	8b-J	.
*ped	*	*
4CC	4cc	.
.	8qcc/L	.
.	8qcc/	.
.	8qdd/	.
.	8qcc/	.
.	8qbn/	.
.	8qcc)/J	.
4g 4e- 4c 4G	(>8.ddL	.
*Xped	*	*
.	16ee-Jk	.
=20	=20	=20
*	*^	*
*ped	*	*	*
(>4FF	(>4a)	[<4a	.
!	!	!LO:N:vis=1	!LO:HP:b=2
4g 4e-	4.aa^>\	2.a]	>
4f 4d	.	.	.
.	8gg\	.	.
*	*Xtuplet	*	*
4e- 4c)	12ggL\	.	]
.	12ff	.	.
*Xped	*	*	*
.	12ee-J)	.	.
!!LO:PB:g=original
=21	=21	=21	=21
*ped	*	*	*
(>4BB- 4BBB-	2ryy	(>4dd	ff
.	.	8qd/L	.
.	.	8qf/	.
.	.	8qb-/J	.
4F	.	12ddL	.
.	.	12cc	.
.	.	12b-J	.
.	[<8qc/L	.	.
*Xped	*	*	*
.	[<8qd/	.	.
.	[<8qf#X/J	.	.
4DD	8b-L	4f#] 4d] 4c]	.
.	8aJ)	.	.
[<4D)/	4r	4ryy	.
*	*v	*v	*
=22	=22	=22
.	(<8qB-/L	.
.	8qd/	.
.	8qg/J	.
*ped	*	*
(>4D] 4GG/	(<8b-L)/	.
.	16r	.
.	16b-Jk	.
.	16qb-/LL	.
.	16qcc/JJ	.
4d 4D	12b-^>L	.
.	12a^>	.
.	12g^>J	.
*	*tuplet	*
*Xped	*	*
4e- 4c 4A	4f#X^>)	.
4d 4D)	4r	.
=23	=23	=23
*^	*^	*
2ryy	4B- 4E-	(4g	4e-\	p <
.	4G 4BB-	8.aL	4d	.
.	.	16b-Jk	.	.
!	!	!	!LO:N:n=2:vis=2	!
2A	4E- 4AA	4cc	4g 4c	.
.	[>4D	4dd	4f#X	.
.	.	.	.	[
.	.	.	.	.
*v	*v	*	*	*
=24	=24	=24	=24
*ped	*	*	*
4D]\ 4GG	4.g)	4r<	.
4d 4G	.	4B-	.
*Xped	*	*	*
.	(>8g	.	.
.	16qg/LL	.	.
.	16qa/JJ	.	.
4FF	2att	2ryy	<
(>4f 4e- 4c 4F	.	.	[
.	16qg/LL	.	.
.	16qa/JJ	.	.
*	*v	*v	*
!!LO:LB:g=original
=25	=25	=25
4d 4B-	&(>4b-	.
!LO:N:n=2:vis=2	!	!
4f\ 4F	4bn]&))	.
4e-\ 4A	8r	.
.	(>4cc^<	.
4f\ [<4F	.	.
.	8cc#X	.
=26	=26	=26
4d\ 4B- 4F]	4dd	.
.	8qdd/L	.
.	8qee-/	.
.	8qdd/	.
.	8qcc#X/J	.
.	8qdd/	.
!LO:N:n=2:vis=2	!	!
4f\ 4F	8.ggL	.
.	16ffJk	.
4e-\ 4A	8ff	.
.	4ccn	.
(>4f\ 4F	.	.
.	8cc#X	.
*clefG2	*	*
=27	=27	=27
*^	*	*
!	!	!LO:TX:b:Bi:t=cres _:problem:dynamics with extention lines	!
!	!	!	!LO:HP:b:Bi:t=cres:ext=ud
4f)	2d 2B-	4dd	<
2g	.	4ee-)	.
.	2c#X [2A	4r	.
4g	.	(4een	.
=28	=28	=28	=28
4f	4d 4A]	4ff	.
.	.	8qff/L	.
.	.	8qgg/	.
.	.	8qff/	.
.	.	8qeen/	.
.	.	8qff/J	.
.	.	8qff/	.
4a	2A	8.bb-L	.
.	.	16aaJk	.
4g 4c#X	.	8aa	.
.	.	4dd#X	[ >
4a 4A)	4ryy	.	.
.	.	8een)	.
*v	*v	*	*
*clefF4	*	*
!!LO:LB:g=original
=29	=29	=29
4D	(>4ff	.
4f 4d 4A	8.ggL	.
.	16ffJk	.
4E-	4ee-X	.
4g 4e- 4B- 4G	8.b-L	]
.	16ccJk	.
=30	=30	=30
4BB-	4dd	.
.	8qqdd/	.
.	8qdd/L	.
.	8qff/J	.
4d 4B- 4F	8ee-L	.
.	16r	.
.	16ddJk	.
4C	4cc	.
4e- 4G 4E-	8.gL	.
.	16aJk)	.
=31	=31	=31
4GG	(>4b-/	.
4d 4B- 4G 4D	8.aL\	.
.	16b-Jk/	.
4EE-	4cc	.
.	16qcc/L	.
.	16qcc/	.
.	16qdd/	.
.	16qcc/J	.
4g 4c 4G 4E-	24bnLL	.
.	24cc	.
.	24cc#X	.
.	24dd	.
.	24ff	.
.	24ee-JJ	.
*	*tuplet	*
=32	=32	=32
*	*^	*
4DD	(>4dd)/	4rc	.
.	.	.	.
*clefG2	*	*	*
(<4f#X 4A	4.dd^</	2.d	.
4g 4B-	.	.	<
.	8dd/	.	.
8g#XL 8Bn	12ddL/	.	.
.	12dd	.	.
8aJ 8c)	.	.	.
.	12ddJ	.	.
.	.	.	[
*	*v	*v	*
*clefF4	*	*
!!LO:LB:g=original
=33	=33	=33
(>4GGG	4dd	.
4d 4D	8.ccL	.
.	16b-Jk	.
.	8qa/L	.
.	8qb-/	.
.	8qcc/J	.
4e- 4c 4F#X	8b-L	.
.	8aJ)	.
4d 4D)	4ra	.
=34	=34	=34
(>4e- 4B- 4G	8ra	.
.	(<8b-/	.
.	16qb-/LL	.
.	16qcc/JJ	.
*	*Xtuplet	*
4d 4D	12b-L	.
.	12a	.
.	12gJ	.
*	*tuplet	*
4e- 4c 4A	4f#X)	.
4d 4D)	4ra	.
=35	=35	=35
4GG	(>4g	.
4d 4B- 4G	8.aL	.
.	16b-Jk	.
4CC	4cc	.
4g 4e- 4G	8.ddL	.
.	16ee-Jk	.
=36	=36	=36
4FF	8ee-L	.
.	8aJ)	.
4g 4e-	8ra	.
.	(>[>8aa^<	.
*	*cue	*
*	*rscale:4	*
4f 4d	32aaLL]\	.
.	32gg#X	.
.	32ggn	.
.	32ff#X	.
.	32ffn	.
.	32een	.
.	32ee-X	.
.	32cc	.
4e- 4c	32a	.
.	32g-X	.
.	32en	.
.	32f	.
.	32gn	.
.	32a	.
.	32b-	.
.	32ccJJ	.
*	*Xcue	*
*	*rscale:1	*
!!LO:LB:g=original
=37	=37	=37
4BB- 4BBB-	(>4dd)	p
.	8qc#X/L	.
.	8qd/	.
.	8qf/	.
.	8qb-/J	.
*	*Xtuplet	*
4F	12ddL	.
.	12ccn	.
.	12b-J	.
*	*tuplet	*
.	8qcn/L	.
.	8qd/	.
.	8qf#X/J	.
4DD	8b-L	.
.	8aJ)	.
[<4D^>/	4ra	.
=38	=38	=38
.	(<8qB-/L	.
.	8qd/	.
.	8qg/J	.
4D]/ 4GG	[<4b-/	.
*	*Xtuplet	*
4d 4D	12b-]L	.
.	12ak	.
.	12gJ	.
*	*tuplet	*
4e- 4c 4A	2f#X)	.
4d 4D	.	.
=39	=39	=39
*^	*^	*
2ryy	4B- 4E-	(4g	4e-	.
.	4G 4BB-	8.aL	4d	.
.	.	16b-Jk	.	.
2A	4E- 4AA	4cc 4g/	[>2c	.
.	[>4D	4dd 4f#X/	.	.
=40	=40	=40	=40	=40
4D]	2.GG	2g)	4c<]/	.
4D\	.	.	4B-</	.
4D\	.	2r	4B-</	.
4D\	4FF	.	4B-</ 4A-<	.
*v	*v	*	*	*
*	*v	*v	*
!!LO:PB:g=original
=||41	=||41	=||41
*k[b-e-a-]	*k[b-e-a-]	*
4EE-\	(>4B-< 4G< 4E-</	p
4AA-\	4c< 4A-< 4E-</	.
4AA-\	4c< 4A-< 4E-</	.
4EE-\	4B-< 4G< 4E-</	.
=42	=42	=42
4AA-\	4c< 4A-< 4E-</	.
4EE-\	4e- 4B-< 4G<	.
4BB-\	4d< 4B-< 4F</	.
4EE-\	4e- 4B-< 4G<	.
=43	=43	=43
4BB-/	4f 4d 4B-	.
4E-\	4g 4e- 4B-	.
4AA-/	4a- 4e- 4c	.
4E-\	4g 4e- 4B-	.
=44	=44	=44
4BB-\	4f 4d 4B-	.
4C\	4e- 4c 4G<	.
.	8qg/	.
4BB-\	4f: 4d: 4A-<:	.
[<4EE-\	4e- 4G<	.
=45	=45	=45
4E-\ 4EE-]	4B-< 4G</	.
4AA-\	4c< 4A-< 4E-</	.
4AA-\	4c< 4A-< 4E-</	.
4EE-\	4B-< 4G< 4E-</	.
=46	=46	=46
4AA-\	4c< 4A-< 4E-</	.
4EE-\	4e- 4B-< 4G<	.
4BB-\	4d 4B-< 4F<	.
4EE-\	4e- 4B-< 4G<	.
!!LO:LB:g=original
=47	=47	=47
4BB-/	4f 4d 4B-	.
4E-\	4g 4e- 4B-	.
4AA-/	4a- 4e- 4c	.
4E-\	4g 4e- 4B-	.
=48	=48	=48
4BB-/	4f 4d 4B-	.
4G 4C\	4e- 4c	.
.	8qg/	.
4BB-\	4f: 4d: 4A-<:	.
[<4EE-\	4e- 4G<	.
=49	=49	=49
4E-\ 4EE-]	4g 4e- 4B-	<
4BB-\ 4BBB-	4g 4d 4G<	.
4C\ 4CC	4g 4e- 4c	.
4D\ 4DD	4f#X 4d 4A<	.
=50	=50	=50
4AAn 4AAAn/	4fn 4c	.
4BB- 4BBB-/	4f 4d	.
4GG 4GGG/	4b- 4d 4B-	.
4C 4CC/	4g 4en 4c	.
.	.	[
=51	=51	=51
4FF 4FFF/	4a 4f 4c	>
4BB- 4BBB-/	4b- 4f 4d	.
4C 4CC/	4g 4en 4B-	.
4F 4FF/	4f 4A	.
=52	=52	=52
4FF 4FFF	4a 4f 4c	.
.	8qcc/	.
4BB- 4BBB-	4b- 4f 4d	.
4C 4CC	4g 4en 4B-	.
4FF	4f 4A	]
!!LO:LB:g=original
=53	=53	=53
4AA- 4AAA-/	4e- 4c	<
4EE- 4EEE-/	4e- 4c 4G	.
4GG 4GGG\	4e- 4B-< 4G<	.
4BB- 4BBB-\	4d 4B-< 4F<	.
=54	=54	=54
4FF\ 4FFF	4d 4An<	.
4GG\ 4GGG	4d 4B-<	.
4EEn\ 4EEEn	4g 4d 4B-< 4G<	.
4AAn\ 4AAAn	4c#X 4A< 4E<	.
.	.	[
=55	=55	=55
!LO:TX:B:b:t=P:w źródle zapis dolnej częsci akordu w nastepnych dwóch taktach + jedną 4 za pomocą 8--:problem	!	!
4DD 4DDD\	4d 4An< 4F#X<	.
4CC CCC\	4e- 4c 4G<	.
4CC 4CCC\	4e- 4c 4G<	.
4DD 4DDD\	4d 4A< 4F#<	.
=56	=56	=56
4DD 4DDD\	4d 4An< 4F#X<	.
4CC 4CCC\	4e- 4c 4G<	.
4FF 4FFF\	4c< 4A-X< 4Fn</	>
4BB- 4BBB-\	4B-< 4F< 4D</	.
=57	=57	=57
4E- 4EE-\	4B-< 4G< 4E-</	.
.	.	]
4AA-\ 4AAA-	4c< 4A-< 4E-</	.
4AA-\ 4AAA-	4c< 4A-< 4E-</	.
(<4EE-\	4B-< 4G< 4E-</	.
=58	=58	=58
4AA-)\	4c< 4A-< [<4E-</	.
4EE-\	4e- 4B-< 4G< 4E-<]	.
4BB-\ 4BBB-	4d 4B-< 4F<	.
4EE-\	4e- 4B-< 4G<	.
!!LO:LB:g=original
=59	=59	=59
4BB-/	4f 4d 4B-	.
4E-\	4g 4e- 4B-	.
4AA-	4a- 4e- 4c	.
4E-\	4g 4e- 4B-	.
=60	=60	=60
4BB-\	4f 4d 4B-	.
4C\	4e- 4c 4G<	.
.	8qg/	.
4BB-\	4f: 4d: 4A-<:	.
4EE-\	4e- 4G<	.
=61	=61	=61
4E- 4EE-\	4B-< 4G</	.
4AA- 4AAA-\	4c< 4A-< 4E-</	.
4AA- 4AAA-\	4c< 4A-< 4E-</	.
4E- 4EE-\	4B-< 4G</	.
=62	=62	=62
4AA-\	4c< 4A-< 4E-</	.
4EE-\	4e- 4B-< 4G<	.
[>4BB-\	4d 4B-< 4F<	.
4BB-]\ 4EE-	4e-; 4B-< 4G<	.
=63	=63	=63
4BB-\	4f 4d 4B-	.
4B- 4E-	4g 4e- 4d-X	.
.	8qb-/	.
4AA-/	4a- 4e- 4c:	.
4C/;<	4g; 4en 4B-	.
=64	=64	=64
4C 4FF\	4f 4c< 4A-<	.
4C 4CC\	4e-X 4c< 4G<	.
.	8qg/	.
4C 4FF\	4f: 4c<: 4A-<:	.
4C 4CC\;<	4e-; 4c< 4G<)	.
!!LO:LB:g=original
=65||	=65||	=65||
*	*ped	*
1FF#: 1FFF#X:	[<1d: 1A-<: 1D<:	.
=66	=66	=66
*	*^	*
!	!	!	!LO:DY:a
1rF	4ra	1d]	pp
.	(>4dd	.	.
.	4dd	.	.
.	8ddL	.	.
*	*Xped	*	*
.	8ddJ	.	.
*	*v	*v	*
=67	=67	=67
*k[b-e-an]	*k[b-e-an]	*
*	*ped	*
4GG 4GGG	4dd	[
(>4d 4D	8ccL	.
.	8b-J	.
*	*Xped	*
.	8qa/L	.
.	8qb-/	.
.	8qcc/J	.
4e- 4c 4F#X	8b-L/	.
.	8a/J)	.
4d 4D	4ra	.
=68	=68	=68
4e- 4B- 4G	8ra	.
.	(<8b-/	.
*	*Xtuplet	*
4d 4D	12b-L	.
.	12a	.
.	12gJ	.
*	*tuplet	*
4e- 4c 4A	2f#X)	.
4d 4D)	.	.
=69	=69	=69
4GG	(>4g	.
4d 4B- 4G	8aL	.
.	8b-J	.
4CC	4cc	.
4g 4e- 4c 4G	8ddL	.
.	8ee-J	.
!!LO:PB:g=original
=70	=70	=70
(>4FF	[<2a)	.
!	!	!LO:HP:b=2
4g 4e-	.	>
4f 4d	(>8.aL]	.
.	16ggJk	.
4e- 4c)	12ggL	]
.	12ff	.
.	12ee-J)	.
=71	=71	=71
*	*^	*
!	!	!	!LO:DY:rj
(>4BB- 4BBB-	(>4dd	2ryy	ff
.	(>8qd/	.	.
.	8qd/L	.	.
.	8qf/	.	.
.	8qb-/J	.	.
*	*Xtuplet	*	*
4F	12ddL)	.	.
.	12cc	.	.
.	12b-J	.	.
*	*tuplet	*	*
.	.	[<8qc/L	.
.	.	[<8qd/	.
.	.	[<8qf#X/J	.
4DD	8b-L	4f#] 4d] 4c]	.
.	8aJ)	.	.
[<4D)/	4ra	4ryy	.
*	*v	*v	*
=72	=72	=72
.	(<8qB-/L	.
.	8qd/	.
.	8qg)/J	.
(>4D] 4GG/	8b-L/	.
.	16r	.
.	16b-Jk	.
.	8qb-/LL	.
.	8qcc/JJ	.
4d 4D	12b-^>L	.
.	12a^>	.
.	12g^>J	.
4e- 4c 4A	4f#X^>	.
4d )4D	4ra	.
=73	=73	=73
*^	*^	*
2ryy	4B- 4E-	(>4g 4e-	4ryy	<
.	4G 4BB-	8.aL	4d	.
.	.	16b-Jk	.	.
2A	4E- 4AA	4cc 4g	2c	.
.	[>4D	4dd 4f#X	.	[
*v	*v	*	*	*
!!LO:LB:g=original
=74	=74	=74	=74
4D]\ 4GG	(4.g)	4rA	.
4d 4G	.	4B-	.
.	8g	.	<
.	16qg/LL	.	.
.	16qa/JJ	.	.
4FF	2att	2ryy	.
4f 4e- 4c 4F	.	.	[
.	16qg/LL	.	.
.	16qa/JJ	.	.
*	*v	*v	*
=75	=75	=75
(>4d 4B-	4b-	.
!LO:N:n=2:vis=2	!	!
4f\ 4F	4bn	.
4e-\ 4A	8r	.
.	4cc^<	.
4f\ [>4F	.	.
.	8cc#X	.
=76	=76	=76
4d\ 4B- 4F]	4dd	.
.	8qdd/L	.
.	8qee-/	.
.	8qdd/	.
.	8qcc#X/	.
.	8qdd/J	.
.	8qdd/	.
!LO:N:n=2:vis=2	!	!
4f\ 4F	8.ggL	.
.	16ffJk	.
4e-\ 4A	8ff	.
.	4ccn	.
[>4f 4F	.	.
*clefG2	*	*
.	8cc#X	.
=77	=77	=77
*^	*	*
!	!	!LO:TX:b:Bi:t=cres _:problem:dynamics with extention lines	!
!	!	!	!LO:HP:b:Bi:t=cres:ext=ud
4f]	2d 2B-	4dd	<
2g	.	4ee-)	.
.	2c#X [2A	4r	.
4g)	.	(>4een	.
=78	=78	=78	=78
4f 4d	4A]	4ff	.
.	.	8qff/L	.
.	.	8qgg/	.
.	.	8qff/	.
.	.	8qeen/	.
.	.	8qff/J	.
.	.	8qqff/	.
4a	2A	8.bb-L	.
.	.	16aaJk	.
4g 4c#X	.	8aa	.
.	.	4dd#X	.
4a 4A	4ryy	.	.
.	.	8een)	[[
*v	*v	*	*
*clefF4	*	*
!!LO:LB:g=original
=79	=79	=79
4D	(>4ff	>
.	.	>
4f 4d 4A	8.ggL	.
.	16ffJk	.
4E-	4ee-	.
4g 4e- 4B- 4G	8.b-L	.
.	16ccJk	]
=80	=80	=80
4BB-	4dd	.
.	8qdd/	.
.	8qdd/L	.
.	8qff/J	.
4d 4B- 4F	8ee-L	.
.	16r	.
.	16ddJk	.
4C	4cc	.
4e- 4G 4E-	8.gL	.
.	16aJk	.
=81	=81	=81
4GG	4b-)/	.
4d 4B- 4G	(>8.aL	.
.	16b-Jk	.
4EE-	4cc	<
.	4qqcc/	.
.	4qqdd/	.
.	4qqcc/	.
4g 4c 4G	16bnLL	.
.	16cc	.
.	16dd	.
.	4qqff/	.
.	16ee-JJ)	.
=82	=82	=82
*	*^	*
4DD	(>4dd/	4rc	[
*clefG2	*	*	*
(<4f#X 4A	4.dd/	2.d^>	<
4g 4B-	.	.	.
.	8dd/	.	.
8g#XL 8Bn	12ddL/	.	.
.	12dd	.	.
8aJ 8c)	.	.	.
.	12ddJ	.	[
*	*v	*v	*
!LO:CL:ed	!	!
*clefF4	*	*
=83	=83	=83
(>4GGG	(4dd)	p
4d 4D	8.ccL	.
.	16b-Jk	.
.	8qa/L	.
.	8qb-/	.
.	8qcc/J	.
4e- 4c 4F#X	8b-L	.
.	8aJ)	.
4d 4D)	4ra	.
!!LO:LB:g=original
=84	=84	=84
(>4e- 4B- 4G	8ra	.
.	(<8b-/	.
.	16qb-/LL	.
.	16qcc/JJ	.
*	*Xtuplet	*
4d 4D	12b-L	.
.	12a	.
.	12gJ	.
*	*tuplet	*
4e- 4c 4A	4f#X)	.
4d 4D)	4ra	.
=85	=85	=85
4GG)	(>4g	.
4d 4B- 4G	8aL	.
.	8b-Jk	.
4CC	4cc	.
.	8qccL	.
.	8qcc	.
.	8qdd	.
.	8qcc	.
.	8qb	.
.	8qcc)J	.
4g 4e- 4c 4G	(>8.ddL	.
.	16ee-Jk	.
=86	=86	=86
4FF	8ee-L	.
.	8aJ	.
4g 4e-	8ra)	.
.	(>[>8aa	.
*	*cue	*
*	*rscale:4	*
4f 4d	32aaLL]\	.
.	32gg#X	.
.	32ggn	.
.	32ff#X	.
.	32ffn	.
.	32een	.
.	32ee-X	.
.	32cc	.
4e- 4c	32a	.
.	32g-X	.
.	32en	.
.	32f	.
.	32gn	.
.	32a	.
.	32b-	.
.	32ccJJ	.
*	*Xcue	*
*	*rscale:1	*
=87	=87	=87
4BB- 4BBB-	4dd	pp
.	8qc#X/L	.
.	8qd/	.
.	8qf/	.
.	8qb-/J	.
*	*Xtuplet	*
4F	12ddL	.
.	12ccn	.
.	12b-J	.
*	*tuplet	*
.	8qc/L	.
.	8qd/	.
.	8qf#X/J	.
4DD	8b-L	.
.	8aJ)	.
!LO:TX:a:t=P:w źródle ligatura odwraca się przy zmianie systemu:problem	!	!
[>4D^>/	4ra	.
!!LO:LB:g=original
=88	=88	=88
.	8qB-/L	.
.	(<8qd/	.
.	8qg/J	.
4D] 4GG/	4b-/	.
4d 4D	8.aL	.
.	16gJk	.
4e- 4c 4A	2f#X)	.
4d 4D	.	.
=89	=89	=89
*^	*^	*
2ryy	4B- 4E-	(>4g	4e-	.
.	4G 4BB-	8.aL	4d	.
.	.	16b-Jk	.	.
2A	(>4E- 4AA	4cc 4g	2c	.
.	4D)	4dd 4f#X	.	.
=90	=90	=90	=90	=90
4rA	2GG	(>2.g^>)	4r	.
4G/	.	.	4fny 4Bn	.
2ryy	4G 4C	.	4en 4c	.
.	4G 4C	8.ccL	4g 4e-X	.
.	.	[<16bnJk	.	.
*v	*v	*	*	*
*	*v	*v	*
=91	=91	=91
*ped	*	*
N(>1D;>] 1GG	1bnX]; 1g 1d)	pp
4qqGGG	.	.
4qqGG	.	.
4qqD	.	.
4qqB	.	.
=-	=-	=-
.	4qqd/	.
.	4qqb	.
.	4qqb\	.
.	4qqdd\	.
.	4qqbbn\N)	.
1ryy	1bb-;\	.
==	==	==
*-	*-	*-
!!title: @{OTL}; @{OPS} @{ONM} publisher: @{PPR}
!!!RDF**kern: > = above
!!!RDF**kern: < = below
!!!RDF**dynam: < = "cres", fontstyle= "bold-italic"
!!!RDF**dynam: > = "dim.", fontstyle= "bold-italic"
!!!RDF**kern: N = linked
!!!ENC: Wojciech Jakubiak-Danek
!!!END: 2018-07-30
!!!EED: Jędrzej Mróz
!!!EST: 2018-07-30
!!!EED2: Wojciech Jakubiak-Danek
!!!EST2: 2019-09-28
!!!rism-genre: Nocturne
!!!rism-key: G minor
!!!rism-opus: op.  37, no. 1
!!!rism-title: Nocturne in G minor op.  37, no. 1
!!!rism-permalink: https://opac.rism.info/search?id=300605111&View=rism
!!!rism-773a-OPR: 300605110
!!!rism-parent-permalink: https://opac.rism.info/search?id=300605110&View=rism
